X: 25
T: Missa Se mieulx ne vient &mdash; Kyrie
C: Gaspar van Weerbeke
%%abc-version 2.0
%%abcx-abcm2ps-target-version 5.9.1 (29 Sep 2008)
%%abc-creator hum2abc beta
%%abcx-conversion-date 2022/03/06 13:05:56
%%abc-copyright Copyright 2014, Pavanello, Agnese
%%abc-edited-by Mair-Gruber, Roland
%%humdrum-veritas 3858515504
%%humdrum-veritas-data 3817669179
%%linebreak <none>
%%barnumbers 0
L: 1/4
M: 3/2
N: Derived from Gas0104a-Missa_Se_mieulx_ne_vient-Kyrie.krn
%%staves [1 2 3 4]
V: 1 clef=treble
V: 2 clef=treble-8
V: 3 clef=treble-8
V: 4 clef=bass
K: C
[V:1] z6 | 
[V:2] D3G3 | 
[V:3] z6 | 
[V:4] D,2B,,G,,B,,C,- | 
[V:1] z2D3G- | 
[V:2] A2B3G | 
[V:3] z6 | 
[V:4] C,/B,,/A,,G,,G,2E,- | 
[V:1] G2A2B2- | 
[V:2] Bc>BAGd- | 
[V:3] z6 | 
[V:4] E,C,F,2G,2 | 
[V:1] BGBc>BA | 
[V:2] d2<e2ff | 
[V:3] z6 | 
[V:4] G,3A,>G,F, | 
[V:1] Gd2B2A | 
[V:2] gfdg2^f | 
[V:3] z2z2D2 | 
[V:4] E,D,G,2A,2 | 
[V:1] B>AGE^F2 | 
[V:2] gGBcA2 | 
[V:3] G3A3 | 
[V:4] G,E,2C,D,2 | 
[V:1] G2zGAG/F/ | 
[V:2] G>FD2zE- | 
[V:3] B2>B2cB/A/ | 
[V:4] G,,2>B,,2A,,3/B,,/ | 
[V:1] E2Dd>cB/A/ | 
[V:2] E/F<GA<BA/d- | 
[V:3] G4z2 | 
[V:4] C,>B,,G,,4 | 
[V:1] BG2F/E<DE/ | 
[V:2] d/c/B/A/G2g2 | 
[V:3] zde>dBd- | 
[V:4] G,2E,>F,G,3/F,/ | 
[V:1] FG>AB2A | 
[V:2] fdBGA2 | 
[V:3] dBdec2 | 
[V:4] D,G,2E,F,2 | 
[V:1] B2B>GAB | 
[V:2] G>A B/c<dc/B | 
[V:3] B2G2z2 | 
[V:4] G,4D,G, | 
[V:1] cdB2z2 | 
[V:2] AB>AG2^F | 
[V:3] z6 | 
[V:4] F,D,2B,,A,,2 | 
[V:1] z2zG>AB/c/ | 
[V:2] G2DE>DG- | 
[V:3] z6 | 
[V:4] G,,6- | 
[V:1] d2BA2G- | 
[V:2] G/A/BGD>^FG | 
[V:3] G>A B/c/d2B | 
[V:4] G,,2zD,B,,G,, | 
[V:1] G/E/^FGDGA- | 
[V:2] A2G>ABc- | 
[V:3] A2z2G2 | 
[V:4] D,2G,,B,,2A,,- | 
[V:1] A/G<BA/G2^F | 
[V:2] c/A/d2BA2 | 
[V:3] ^FGDGA2 | 
[V:4] A,,G,,>^F,,G,,D,2 | 
[V:1] G6 ||  
[V:2] [B6d6] ||  
[V:3] G6 ||  
[V:4] G,,6 ||  
[V:1] [M:2/2]G4 | 
[V:2] [M:2/2]z4 | 
[V:3] [M:2/2]z4 | 
[V:4] [M:2/2]z4 | 
[V:1] G2D2 | 
[V:2] G4 | 
[V:3] z4 | 
[V:4] z4 | 
[V:1] E2F2 | 
[V:2] G2D2 | 
[V:3] z4 | 
[V:4] z4 | 
[V:1] G>FD2 | 
[V:2] E2F2 | 
[V:3] z4 | 
[V:4] z4 | 
[V:1] zGA2 | 
[V:2] G>FD2 | 
[V:3] z4 | 
[V:4] z4 | 
[V:1] B2Ac | 
[V:2] zGA2 | 
[V:3] z4 | 
[V:4] z4 | 
[V:1] BGcB/A/ | 
[V:2] B2Ac | 
[V:3] z4 | 
[V:4] z4 | 
[V:1] G2z2 | 
[V:2] BGcB/A/ | 
[V:3] z4 | 
[V:4] z4 | 
[V:1] d>c B/A/B | 
[V:2] G2d2- | 
[V:3] z4 | 
[V:4] z4 | 
[V:1] AG2^F | 
[V:2] dBA2 | 
[V:3] z4 | 
[V:4] z4 | 
[V:1] G2z2 | 
[V:2] G4 | 
[V:3] z4 | 
[V:4] z4 | 
[V:1] G2A2 | 
[V:2] z4 | 
[V:3] z4 | 
[V:4] z4 | 
[V:1] GE2D/C/ | 
[V:2] z4 | 
[V:3] z4 | 
[V:4] G,2A,2 | 
[V:1] B,2zA, | 
[V:2] z4 | 
[V:3] z4 | 
[V:4] G,E,2D,/C,/ | 
[V:1] B,2C2 | 
[V:2] d2e2 | 
[V:3] z4 | 
[V:4] B,,2z2 | 
[V:1] D2z2 | 
[V:2] dB2G | 
[V:3] z4 | 
[V:4] D,2E,2 | 
[V:1] z4 | 
[V:2] ABG2 | 
[V:3] z4 | 
[V:4] D,B,,2G,, | 
[V:1] z4 | 
[V:2] zd2c/B/ | 
[V:3] z4 | 
[V:4] A,,B,,G,,2 | 
[V:1] z4 | 
[V:2] A2d2 | 
[V:3] z4 | 
[V:4] zD,2C,/B,,/ | 
[V:1] z4 | 
[V:2] cA>GF | 
[V:3] z4 | 
[V:4] A,,>B,,C,D,- | 
[V:1] z4 | 
[V:2] E2D2 | 
[V:3] z4 | 
[V:4] D,C,D,2 | 
[V:1] z4 | 
[V:2] zd2c/B/ | 
[V:3] z4 | 
[V:4] F,2E,2- | 
[V:1] z4 | 
[V:2] c/B/A/G/FA- | 
[V:3] z4 | 
[V:4] E,2D,C, | 
[V:1] zG2^F | 
[V:2] AGA2 | 
[V:3] z4 | 
[V:4] D,B,,A,,2 | 
[V:1] G2Ac- | 
[V:2] z2zA- | 
[V:3] z4 | 
[V:4] G,,2z2 | 
[V:1] cdB2 | 
[V:2] AFG2 | 
[V:3] z4 | 
[V:4] z2G,,2 | 
[V:1] A2z2 | 
[V:2] zA2G/F/ | 
[V:3] z4 | 
[V:4] A,,C,2D, | 
[V:1] d2cA- | 
[V:2] G2A2 | 
[V:3] z4 | 
[V:4] B,,2A,,2 | 
[V:1] AG/F/E2 | 
[V:2] z2zA- | 
[V:3] z4 | 
[V:4] D,2C,A,,- | 
[V:1] z4 | 
[V:2] AG/F/E2 | 
[V:3] z4 | 
[V:4] A,,D,2^C, | 
[V:1] A>GFE- | 
[V:2] D2z2 | 
[V:3] z4 | 
[V:4] D,F,2G, | 
[V:1] E/F/G/A/FE- | 
[V:2] z4 | 
[V:3] z4 | 
[V:4] E,2D,A,- | 
[V:1] ED2^C | 
[V:2] z2G2 | 
[V:3] z4 | 
[V:4] A,G,/F,/E,2 | 
[V:1] D2z2 | 
[V:2] AB2d | 
[V:3] z4 | 
[V:4] D,2G,,2 | 
[V:1] z4 | 
[V:2] cdB2 | 
[V:3] z4 | 
[V:4] A,,B,,2D, | 
[V:1] z4 | 
[V:2] AB2A/G/ | 
[V:3] z4 | 
[V:4] C,D,B,,2 | 
[V:1] z4 | 
[V:2] AG2^F | 
[V:3] z4 | 
[V:4] C,B,,A,,2 | 
[V:1] D2ED- | 
[V:2] G2z2 | 
[V:3] z4 | 
[V:4] G,,2z2 | 
[V:1] DC/B,/CD | 
[V:2] z4 | 
[V:3] z4 | 
[V:4] D,2E,D,- | 
[V:1] B,2zB- | 
[V:2] d2ed- | 
[V:3] z4 | 
[V:4] D,C,/B,,/C,D, | 
[V:1] B/c/d/e/cB | 
[V:2] dc/B/cd | 
[V:3] z4 | 
[V:4] B,,2A,,B,,- | 
[V:1] z4 | 
[V:2] B2AB- | 
[V:3] z4 | 
[V:4] B,,/C,/D,/E,/C,B,, | 
[V:1] z4 | 
[V:2] B/c/d/e/cB | 
[V:3] z4 | 
[V:4] D,>C,A,,B,, | 
[V:1] B2cB | 
[V:2] d>cAB | 
[V:3] z4 | 
[V:4] G,,2z2 | 
[V:1] d>cAB | 
[V:2] G2zg- | 
[V:3] z4 | 
[V:4] z4 | 
[V:1] G>AB2 | 
[V:2] g/f/ed3/G/ | 
[V:3] z4 | 
[V:4] z2zG, | 
[V:1] AG2^F | 
[V:2] dBA2 | 
[V:3] z4 | 
[V:4] F,G,D,2 | 
[V:1] GD>E^F/G/ | 
[V:2] G>AB2 | 
[V:3] z4 | 
[V:4] G,,G,2D,- | 
[V:1] ABc3/d/ | 
[V:2] AG2^F | 
[V:3] z4 | 
[V:4] D,B,,A,,2 | 
[V:1] B2AB- | 
[V:2] G/A/B/c<dG/ | 
[V:3] z4 | 
[V:4] G,,G,D,G,- | 
[V:1] BG2^F | 
[V:2] dBA2 | 
[V:3] z4 | 
[V:4] G,/^F,/G,D,2 | 
[V:1] G4 ||  
[V:2] G4 ||  
[V:3] z4 ||  
[V:4] G,,4 ||  
[V:1] [M:3/2]G2B2c2 | 
[V:2] [M:3/2]d3c/B/A2 | 
[V:3] [M:3/2]z6 | 
[V:4] [M:3/2]G,4F,2 | 
[V:1] Bd2c/B/A2 | 
[V:2] GB>AGEF | 
[V:3] G2B2c2 | 
[V:4] G,2G,,2A,,2 | 
[V:1] GB>AGzF | 
[V:2] G2D2zd | 
[V:3] Bd2c/B/A2 | 
[V:4] zG,,>A,,B,,/C,/D,2 | 
[V:1] ED2dd2 | 
[V:2] BGd>ef2 | 
[V:3] GB>AGF3/D/ | 
[V:4] E,G,>F,E,D,2 | 
[V:1] ^cd2AGE | 
[V:2] z2f2e2 | 
[V:3] EDdd2^c | 
[V:4] A,,B,,>C,D,E,2 | 
[V:1] F>GA_BAB | 
[V:2] Ad2_Bc_B | 
[V:3] d4z2 | 
[V:4] D,2F,G,F,G, | 
[V:1] Ad2Bc/B/A/G/ | 
[V:2] dDF>GA2 | 
[V:3] f2>d2e2 | 
[V:4] D,4A,,2 | 
[V:1] F>GAD2d | 
[V:2] D2zDF3/G/ | 
[V:3] d2ffff | 
[V:4] z2D,4 | 
[V:1] cB2A2G | 
[V:2] AFGEzB | 
[V:3] ed2cB2 | 
[V:4] A,,B,,G,,A,,E,2 | 
[V:1] A2zd>Bc | 
[V:2] A2GBA2 | 
[V:3] z2z2zA | 
[V:4] F,>D,E,G,2F, | 
[V:1] BA/G<FE<GE/ | 
[V:2] B2<d2BG | 
[V:3] GBA2G2 | 
[V:4] G,2D,2E,2 | 
[V:1] FA2G/F/E2 | 
[V:2] A2FA>Bc | 
[V:3] d4c2 | 
[V:4] D,F,2D,A,2 | 
[V:1] DF>GA/B<cB/ | 
[V:2] A2DF>GA/B/ | 
[V:3] d3c/B/A2 | 
[V:4] D,2z2F,2 | 
[V:1] G4z2 | 
[V:2] c>BG>ABc | 
[V:3] e6 | 
[V:4] E,C,>D,E,/F,/G,A, | 
[V:1] G>ABc2B | 
[V:2] BG2zg2 | 
[V:3] e4d2- | 
[V:4] E,2zC,G,2 | 
[V:1] AB2AGA- | 
[V:2] fge2gf | 
[V:3] d2c4 | 
[V:4] D,G,zA,E,F, | 
[V:1] AGFG2^F | 
[V:2] d2d/B/cd2 | 
[V:3] B2AGA2 | 
[V:4] G,2D,E,D,2 | 
[V:1] G6 |]  
[V:2] d6 |]  
[V:3] G6 |]  
[V:4] G,,6 |]  


